src/assets/images/wave-background.svg

<svg width="3840" height="2160" xmlns="http://www.w3.org/2000/svg"><path fill="#fff" d="M0 0h3840v2160H0z"/><path d="M0 1210l91.5-76.2C183 1057.7 366 905.3 548.8 925.2c182.9 19.8 365.5 211.8 548.4 309.5 182.8 97.6 365.8 101 548.6 13 182.9-88 365.5-267.4 548.4-243C2377 1029 2560 1257 2742.8 1240.2c182.9-16.9 365.5-278.5 548.4-382.4C3474 754 3657 808 3748.5 835l91.5 27v1299H0z" fill="#18e1fd"/><path d="M0 845l91.5 100.2c91.5 100.1 274.5 300.5 457.3 410.1 182.9 109.7 365.5 128.7 548.4 142.2 182.8 13.5 365.8 21.5 548.6-58 182.9-79.5 365.5-246.5 548.4-357.8 182.8-111.4 365.8-167 548.6-189 182.9-22 365.5-10.4 548.4 4.3 182.8 14.7 365.8 32.3 457.3 41.2l91.5 8.8v1214H0z" fill="#00c8ff"/><path d="M0 1183l91.5 11.3c91.5 11.4 274.5 34 457.3 92.9 182.9 58.8 365.5 153.8 548.4 139.5 182.8-14.4 365.8-138 548.6-128.7 182.9 9.3 365.5 151.7 548.4 241.7 182.8 90 365.8 127.6 548.6 51.5 182.9-76.2 365.5-266.2 548.4-349.9 182.8-83.6 365.8-61 457.3-49.6l91.5 11.3v958H0z" fill="#00adff"/><path d="M0 1810l91.5-30.3c91.5-30.4 274.5-91 457.3-113.4 182.9-22.3 365.5-6.3 548.4-18.5 182.8-12.1 365.8-52.5 548.6-73 182.9-20.5 365.5-21.1 548.4-5.5 182.8 15.7 365.8 47.7 548.6 26.2 182.9-21.5 365.5-96.5 548.4-121.2 182.8-24.6 365.8 1 457.3 13.9l91.5 12.8v660H0z" fill="#008dff"/><path d="M0 1654l91.5 40.3c91.5 40.4 274.5 121 457.3 137.9 182.9 16.8 365.5-30.2 548.4-58.9 182.8-28.6 365.8-39 548.6-61.5 182.9-22.5 365.5-57.1 548.4-43.6 182.8 13.5 365.8 75.1 548.6 111.3 182.9 36.2 365.5 46.8 548.4 56.3 182.8 9.5 365.8 17.9 457.3 22l91.5 4.2v299H0z" fill="#06f"/></svg>

<svg id="visual" viewBox="0 0 3840 2160" width="3840" height="2160" xmlns="http://www.w3.org/2000/svg" xmlns:xlink="http://www.w3.org/1999/xlink" version="1.1"><rect x="0" y="0" width="3840" height="2160" fill="#ffffff"></rect><path d="M0 1210L91.5 1133.8C183 1057.7 366 905.3 548.8 925.2C731.7 945 914.3 1137 1097.2 1234.7C1280 1332.3 1463 1335.7 1645.8 1247.7C1828.7 1159.7 2011.3 980.3 2194.2 1004.7C2377 1029 2560 1257 2742.8 1240.2C2925.7 1223.3 3108.3 961.7 3291.2 857.8C3474 754 3657 808 3748.5 835L3840 862L3840 2161L3748.5 2161C3657 2161 3474 2161 3291.2 2161C3108.3 2161 2925.7 2161 2742.8 2161C2560 2161 2377 2161 2194.2 2161C2011.3 2161 1828.7 2161 1645.8 2161C1463 2161 1280 2161 1097.2 2161C914.3 2161 731.7 2161 548.8 2161C366 2161 183 2161 91.5 2161L0 2161Z" fill="#18e1fd"></path><path d="M0 845L91.5 945.2C183 1045.3 366 1245.7 548.8 1355.3C731.7 1465 914.3 1484 1097.2 1497.5C1280 1511 1463 1519 1645.8 1439.5C1828.7 1360 2011.3 1193 2194.2 1081.7C2377 970.3 2560 914.7 2742.8 892.7C2925.7 870.7 3108.3 882.3 3291.2 897C3474 911.7 3657 929.3 3748.5 938.2L3840 947L3840 2161L3748.5 2161C3657 2161 3474 2161 3291.2 2161C3108.3 2161 2925.7 2161 2742.8 2161C2560 2161 2377 2161 2194.2 2161C2011.3 2161 1828.7 2161 1645.8 2161C1463 2161 1280 2161 1097.2 2161C914.3 2161 731.7 2161 548.8 2161C366 2161 183 2161 91.5 2161L0 2161Z" fill="#00c8ff"></path><path d="M0 1183L91.5 1194.3C183 1205.7 366 1228.3 548.8 1287.2C731.7 1346 914.3 1441 1097.2 1426.7C1280 1412.3 1463 1288.7 1645.8 1298C1828.7 1307.3 2011.3 1449.7 2194.2 1539.7C2377 1629.7 2560 1667.3 2742.8 1591.2C2925.7 1515 3108.3 1325 3291.2 1241.3C3474 1157.7 3657 1180.3 3748.5 1191.7L3840 1203L3840 2161L3748.5 2161C3657 2161 3474 2161 3291.2 2161C3108.3 2161 2925.7 2161 2742.8 2161C2560 2161 2377 2161 2194.2 2161C2011.3 2161 1828.7 2161 1645.8 2161C1463 2161 1280 2161 1097.2 2161C914.3 2161 731.7 2161 548.8 2161C366 2161 183 2161 91.5 2161L0 2161Z" fill="#00adff"></path><path d="M0 1810L91.5 1779.7C183 1749.3 366 1688.7 548.8 1666.3C731.7 1644 914.3 1660 1097.2 1647.8C1280 1635.7 1463 1595.3 1645.8 1574.8C1828.7 1554.3 2011.3 1553.7 2194.2 1569.3C2377 1585 2560 1617 2742.8 1595.5C2925.7 1574 3108.3 1499 3291.2 1474.3C3474 1449.7 3657 1475.3 3748.5 1488.2L3840 1501L3840 2161L3748.5 2161C3657 2161 3474 2161 3291.2 2161C3108.3 2161 2925.7 2161 2742.8 2161C2560 2161 2377 2161 2194.2 2161C2011.3 2161 1828.7 2161 1645.8 2161C1463 2161 1280 2161 1097.2 2161C914.3 2161 731.7 2161 548.8 2161C366 2161 183 2161 91.5 2161L0 2161Z" fill="#008dff"></path><path d="M0 1654L91.5 1694.3C183 1734.7 366 1815.3 548.8 1832.2C731.7 1849 914.3 1802 1097.2 1773.3C1280 1744.7 1463 1734.3 1645.8 1711.8C1828.7 1689.3 2011.3 1654.7 2194.2 1668.2C2377 1681.7 2560 1743.3 2742.8 1779.5C2925.7 1815.7 3108.3 1826.3 3291.2 1835.8C3474 1845.3 3657 1853.7 3748.5 1857.8L3840 1862L3840 2161L3748.5 2161C3657 2161 3474 2161 3291.2 2161C3108.3 2161 2925.7 2161 2742.8 2161C2560 2161 2377 2161 2194.2 2161C2011.3 2161 1828.7 2161 1645.8 2161C1463 2161 1280 2161 1097.2 2161C914.3 2161 731.7 2161 548.8 2161C366 2161 183 2161 91.5 2161L0 2161Z" fill="#0066ff"></path></svg>
